web/themes/custom/oh_my_pasta/images/icons/search.svg

<svg width="26" height="26" viewBox="0 0 26 26" fill="currentColor" xmlns="http://www.w3.org/2000/svg">
<path d="M25.0659 22.971L20.2601 18.1663C21.7166 16.26 22.5154 13.9478 22.5157 11.508C22.5157 8.56773 21.3703 5.80325 19.2905 3.7242C17.211 1.64514 14.4463 0.5 11.5051 0.5C8.56417 0.5 5.79912 1.64514 3.71963 3.7242C-0.573209 8.01649 -0.573209 15.0002 3.71963 19.2918C5.79912 21.3712 8.56417 22.5163 11.5051 22.5163C13.9454 22.516 16.2581 21.7174 18.1647 20.2612L22.9705 25.066C23.2595 25.3553 23.639 25.5 24.0182 25.5C24.3973 25.5 24.7768 25.3553 25.0659 25.066C25.6447 24.4876 25.6447 23.5494 25.0659 22.971ZM5.81503 17.1968C2.67771 14.0601 2.67807 8.95619 5.81503 5.81916C7.33486 4.30002 9.35574 3.46305 11.5051 3.46305C13.6547 3.46305 15.6752 4.30002 17.1951 5.81916C18.7149 7.33867 19.552 9.35913 19.552 11.508C19.552 13.6572 18.7149 15.6773 17.1951 17.1968C15.6752 18.7163 13.6547 19.5533 11.5051 19.5533C9.35574 19.5533 7.33486 18.7163 5.81503 17.1968Z"/>
</svg>

<svg width="26" height="26" fill="currentColor" xmlns="http://www.w3.org/2000/svg"><path d="M25.066 22.971l-4.806-4.805a10.916 10.916 0 002.256-6.658c0-2.94-1.146-5.705-3.225-7.784A10.94 10.94 0 0011.505.5 10.94 10.94 0 003.72 3.724C-.573 8.016-.573 15 3.72 19.292a10.939 10.939 0 007.785 3.224c2.44 0 4.753-.799 6.66-2.255l4.806 4.805a1.477 1.477 0 002.095 0 1.48 1.48 0 000-2.095zM5.815 17.197c-3.137-3.137-3.137-8.24 0-11.378a7.997 7.997 0 015.69-2.356c2.15 0 4.17.837 5.69 2.356a7.992 7.992 0 012.357 5.689c0 2.15-.837 4.17-2.357 5.689a7.995 7.995 0 01-5.69 2.356c-2.15 0-4.17-.837-5.69-2.356z"/></svg>
